fa/svgs/regular/building.svg

<svg xmlns="http://www.w3.org/2000/svg" viewBox="0 0 384 512"><!--! Font Awesome Free 6.1.1 by @fontawesome - https://fontawesome.com License - https://fontawesome.com/license/free (Icons: CC BY 4.0, Fonts: SIL OFL 1.1, Code: MIT License) Copyright 2022 Fonticons, Inc.--><path d="M88 104c0-8.84 7.16-16 16-16h48c8.8 0 16 7.16 16 16v48c0 8.8-7.2 16-16 16h-48c-8.84 0-16-7.2-16-16v-48zm192-16c8.8 0 16 7.16 16 16v48c0 8.8-7.2 16-16 16h-48c-8.8 0-16-7.2-16-16v-48c0-8.84 7.2-16 16-16h48zM88 232c0-8.8 7.16-16 16-16h48c8.8 0 16 7.2 16 16v48c0 8.8-7.2 16-16 16h-48c-8.84 0-16-7.2-16-16v-48zm192-16c8.8 0 16 7.2 16 16v48c0 8.8-7.2 16-16 16h-48c-8.8 0-16-7.2-16-16v-48c0-8.8 7.2-16 16-16h48zM0 64C0 28.65 28.65 0 64 0h256c35.3 0 64 28.65 64 64v384c0 35.3-28.7 64-64 64H64c-35.35 0-64-28.7-64-64V64zm48 0v384c0 8.8 7.16 16 16 16h80v-64c0-26.5 21.5-48 48-48s48 21.5 48 48v64h80c8.8 0 16-7.2 16-16V64c0-8.84-7.2-16-16-16H64c-8.84 0-16 7.16-16 16z"/></svg>

<svg xmlns="http://www.w3.org/2000/svg" viewBox="0 0 384 512"><!--! Font Awesome Free 6.2.1 by @fontawesome - https://fontawesome.com License - https://fontawesome.com/license/free (Icons: CC BY 4.0, Fonts: SIL OFL 1.1, Code: MIT License) Copyright 2022 Fonticons, Inc. --><path d="M88 104C88 95.16 95.16 88 104 88H152C160.8 88 168 95.16 168 104V152C168 160.8 160.8 168 152 168H104C95.16 168 88 160.8 88 152V104zM280 88C288.8 88 296 95.16 296 104V152C296 160.8 288.8 168 280 168H232C223.2 168 216 160.8 216 152V104C216 95.16 223.2 88 232 88H280zM88 232C88 223.2 95.16 216 104 216H152C160.8 216 168 223.2 168 232V280C168 288.8 160.8 296 152 296H104C95.16 296 88 288.8 88 280V232zM280 216C288.8 216 296 223.2 296 232V280C296 288.8 288.8 296 280 296H232C223.2 296 216 288.8 216 280V232C216 223.2 223.2 216 232 216H280zM0 64C0 28.65 28.65 0 64 0H320C355.3 0 384 28.65 384 64V448C384 483.3 355.3 512 320 512H64C28.65 512 0 483.3 0 448V64zM48 64V448C48 456.8 55.16 464 64 464H144V400C144 373.5 165.5 352 192 352C218.5 352 240 373.5 240 400V464H320C328.8 464 336 456.8 336 448V64C336 55.16 328.8 48 320 48H64C55.16 48 48 55.16 48 64z"/></svg>
